X:479
T:
R:vals
S:Efter vaktmästaren Valter Engkvist, Klintehamn.
O:Gotland, Klintehamn
M:3/4
L:1/8
K:G
EF|G2 G2 G2|G2 G2 G2|e3 dcB|ce G2 G2|f3 edc|Bd G2 G2|e3 dcB|ce G2 G2|Ge e2 G2|Af f2 A2|
Bg g2 B2|c4::G2|gfedcB|cBcdec|fefgaf|d4 G2|gfedcB|cc'bagf|egfefd|c4:|

